src/assets/duotone/Woman.svg

<svg width="24" height="24" viewBox="0 0 24 24"  xmlns="http://www.w3.org/2000/svg">
<path opacity="0.4" d="M19 9C19 12.62 16.26 15.59 12.75 15.96C12.5 15.99 12.25 16 12 16C11.75 16 11.5 15.99 11.25 15.96C7.74 15.59 5 12.62 5 9C5 5.13 8.13 2 12 2C15.87 2 19 5.13 19 9Z" />
<path d="M15.75 19.0009C15.75 19.4109 15.41 19.7509 15 19.7509H12.75V22.0009C12.75 22.4109 12.41 22.7509 12 22.7509C11.59 22.7509 11.25 22.4109 11.25 22.0009V19.7509H9C8.59 19.7509 8.25 19.4109 8.25 19.0009C8.25 18.5909 8.59 18.2509 9 18.2509H11.25V15.9609C11.5 15.9909 11.75 16.0009 12 16.0009C12.25 16.0009 12.5 15.9909 12.75 15.9609V18.2509H15C15.41 18.2509 15.75 18.5909 15.75 19.0009Z" />
</svg>

<?xml version="1.0" encoding="UTF-8"?>
<svg width="24" height="24" viewBox="0 0 24 24" xmlns="http://www.w3.org/2000/svg">
 <path d="m19 9c0 3.62-2.74 6.59-6.25 6.96-0.25 0.03-0.5 0.04-0.75 0.04s-0.5-0.01-0.75-0.04c-3.51-0.37-6.25-3.34-6.25-6.96 0-3.87 3.13-7 7-7s7 3.13 7 7z" opacity=".4"/>
 <path d="m15.75 19.001c0 0.41-0.34 0.75-0.75 0.75h-2.25v2.25c0 0.41-0.34 0.75-0.75 0.75s-0.75-0.34-0.75-0.75v-2.25h-2.25c-0.41 0-0.75-0.34-0.75-0.75s0.34-0.75 0.75-0.75h2.25v-2.29c0.25 0.03 0.5 0.04 0.75 0.04s0.5-0.01 0.75-0.04v2.29h2.25c0.41 0 0.75 0.34 0.75 0.75z"/>
</svg>
